X:008 
T:Baker's Reel, The
S:Rose Murphy (Galway)
F:file ID: cre.4/008baker
B:CRE4.137 (Ril an BhÃÂÃÂÃÂÃÂ¡icÃÂÃÂÃÂÃÂ©ara)
L:1/8
Q:180
M:4/4
R:reel
K:G
d|g2dc BAG2|AGFA G2GE|DGFG ABc2|BAGB A3d|
g2 dc BA G2|AGFA G2 GE|DGFG AB c2|1 BAGF G3:|\
[2 BAGF G2 ||
|: Bc|dBGB dBec|dBGB d2 ed|dBGB dBed|cBAB c2 Bc|
dBGB dBec|dBGB d2 ef|gfed cBAG|1 FGAB c2:|\
[2 FGAB G4|]

%%%

